web-app/src/assets/SVG/book.svg

<svg width="22" height="22" viewBox="0 0 32 32" fill="none" xmlns="http://www.w3.org/2000/svg">
<g clip-path="url(#clip0_330_38)">
<path d="M23.3334 6C20.7334 6 17.9334 6.53333 16 8C14.0667 6.53333 11.2667 6 8.66671 6C6.73337 6 4.68004 6.29333 2.96004 7.05333C1.98671 7.49333 1.33337 8.44 1.33337 9.52V24.56C1.33337 26.2933 2.96004 27.5733 4.64004 27.1467C5.94671 26.8133 7.33337 26.6667 8.66671 26.6667C10.7467 26.6667 12.96 27.0133 14.7467 27.8933C15.5467 28.2933 16.4534 28.2933 17.24 27.8933C19.0267 27 21.24 26.6667 23.32 26.6667C24.6534 26.6667 26.04 26.8133 27.3467 27.1467C29.0267 27.5867 30.6534 26.3067 30.6534 24.56V9.52C30.6534 8.44 30 7.49333 29.0267 7.05333C27.32 6.29333 25.2667 6 23.3334 6ZM28 22.9733C28 23.8133 27.2267 24.4267 26.4 24.28C25.4 24.0933 24.36 24.0133 23.3334 24.0133C21.0667 24.0133 17.8 24.88 16 26.0133V10.6667C17.8 9.53333 21.0667 8.66667 23.3334 8.66667C24.56 8.66667 25.7734 8.78667 26.9334 9.04C27.5467 9.17333 28 9.72 28 10.3467V22.9733Z" fill="url(#paint0_linear_330_38)"/>
<path d="M18.64 14.68C18.2134 14.68 17.8267 14.4133 17.6934 13.9866C17.52 13.4666 17.8134 12.8933 18.3334 12.7333C20.3867 12.0666 23.04 11.8533 25.48 12.1333C26.0267 12.2 26.4267 12.6933 26.36 13.24C26.2934 13.7866 25.8 14.1866 25.2534 14.12C23.0934 13.8666 20.7334 14.0666 18.9467 14.64C18.84 14.6533 18.7334 14.68 18.64 14.68Z" fill="url(#paint1_linear_330_38)"/>
<path d="M18.64 18.2267C18.2134 18.2267 17.8267 17.96 17.6934 17.5333C17.52 17.0133 17.8134 16.44 18.3334 16.28C20.3734 15.6133 23.04 15.4 25.48 15.68C26.0267 15.7467 26.4267 16.24 26.36 16.7867C26.2934 17.3333 25.8 17.7333 25.2534 17.6667C23.0934 17.4133 20.7334 17.6133 18.9467 18.1867C18.84 18.2133 18.7334 18.2267 18.64 18.2267Z" fill="url(#paint2_linear_330_38)"/>
<path d="M18.64 21.7734C18.2134 21.7734 17.8267 21.5067 17.6934 21.08C17.52 20.56 17.8134 19.9867 18.3334 19.8267C20.3734 19.16 23.04 18.9467 25.48 19.2267C26.0267 19.2934 26.4267 19.7867 26.36 20.3334C26.2934 20.88 25.8 21.2667 25.2534 21.2134C23.0934 20.96 20.7334 21.16 18.9467 21.7334C18.84 21.76 18.7334 21.7734 18.64 21.7734Z" fill="url(#paint3_linear_330_38)"/>
</g>
<defs>
<linearGradient id="paint0_linear_330_38" x1="15.9934" y1="6" x2="15.9934" y2="28.1933" gradientUnits="userSpaceOnUse">
<stop stop-color="#9B51E0"/>
<stop offset="1" stop-color="#720ECF"/>
</linearGradient>
<linearGradient id="paint1_linear_330_38" x1="22.0054" y1="12.0132" x2="22.0054" y2="14.68" gradientUnits="userSpaceOnUse">
<stop stop-color="#9B51E0"/>
<stop offset="1" stop-color="#720ECF"/>
</linearGradient>
<linearGradient id="paint2_linear_330_38" x1="22.0054" y1="15.5599" x2="22.0054" y2="18.2267" gradientUnits="userSpaceOnUse">
<stop stop-color="#9B51E0"/>
<stop offset="1" stop-color="#720ECF"/>
</linearGradient>
<linearGradient id="paint3_linear_330_38" x1="22.0054" y1="19.1066" x2="22.0054" y2="21.7734" gradientUnits="userSpaceOnUse">
<stop stop-color="#9B51E0"/>
<stop offset="1" stop-color="#720ECF"/>
</linearGradient>
<clipPath id="clip0_330_38">
<rect width="32" height="32" fill="white"/>
</clipPath>
</defs>
</svg>

<svg xmlns="http://www.w3.org/2000/svg" width="22" height="22" fill="none" viewBox="0 0 32 32"><g clip-path="url(#a)"><path fill="url(#b)" d="M23.333 6c-2.6 0-5.4.533-7.333 2-1.933-1.467-4.733-2-7.333-2-1.934 0-3.987.293-5.707 1.053-.973.44-1.627 1.387-1.627 2.467v15.04c0 1.733 1.627 3.013 3.307 2.587 1.307-.334 2.693-.48 4.027-.48 2.08 0 4.293.346 6.08 1.226.8.4 1.706.4 2.493 0 1.787-.893 4-1.226 6.08-1.226 1.333 0 2.72.146 4.027.48 1.68.44 3.306-.84 3.306-2.587V9.52c0-1.08-.653-2.027-1.626-2.467C27.32 6.293 25.267 6 23.333 6ZM28 22.973c0 .84-.773 1.454-1.6 1.307-1-.187-2.04-.267-3.067-.267-2.266 0-5.533.867-7.333 2V10.667c1.8-1.134 5.067-2 7.333-2 1.227 0 2.44.12 3.6.373.614.133 1.067.68 1.067 1.307v12.626Z"/><path fill="url(#c)" d="M18.64 14.68a.984.984 0 0 1-.947-.693.991.991 0 0 1 .64-1.254c2.054-.666 4.707-.88 7.147-.6.547.067.947.56.88 1.107-.067.547-.56.947-1.107.88-2.16-.253-4.52-.053-6.306.52-.107.013-.214.04-.307.04Z"/><path fill="url(#d)" d="M18.64 18.227a.984.984 0 0 1-.947-.694.991.991 0 0 1 .64-1.253c2.04-.667 4.707-.88 7.147-.6.547.067.947.56.88 1.107-.067.546-.56.946-1.107.88-2.16-.254-4.52-.054-6.306.52-.107.026-.214.04-.307.04Z"/><path fill="url(#e)" d="M18.64 21.773a.984.984 0 0 1-.947-.693.991.991 0 0 1 .64-1.253c2.04-.667 4.707-.88 7.147-.6.547.066.947.56.88 1.106-.067.547-.56.934-1.107.88-2.16-.253-4.52-.053-6.306.52-.107.027-.214.04-.307.04Z"/></g><defs><linearGradient id="b" x1="15.993" x2="15.993" y1="6" y2="28.193" gradientUnits="userSpaceOnUse"><stop stop-color="#9B51E0"/><stop offset="1" stop-color="#720ECF"/></linearGradient><linearGradient id="c" x1="22.005" x2="22.005" y1="12.013" y2="14.68" gradientUnits="userSpaceOnUse"><stop stop-color="#9B51E0"/><stop offset="1" stop-color="#720ECF"/></linearGradient><linearGradient id="d" x1="22.005" x2="22.005" y1="15.56" y2="18.227" gradientUnits="userSpaceOnUse"><stop stop-color="#9B51E0"/><stop offset="1" stop-color="#720ECF"/></linearGradient><linearGradient id="e" x1="22.005" x2="22.005" y1="19.107" y2="21.773" gradientUnits="userSpaceOnUse"><stop stop-color="#9B51E0"/><stop offset="1" stop-color="#720ECF"/></linearGradient><clipPath id="a"><path fill="#fff" d="M0 0h32v32H0z"/></clipPath></defs></svg>
